x-pack/platform/packages/shared/kbn-inference-endpoint-ui-common/src/components/providers/assets/images/cohere.svg

<svg width="14" height="14" viewBox="0 0 14 14" fill="none" xmlns="http://www.w3.org/2000/svg">
<g id="Frame 1502">
<g id="Group">
<path id="Vector" fill-rule="evenodd" clip-rule="evenodd" d="M4.69017 8.30813C5.05012 8.30813 5.76614 8.2878 6.75587 7.86999C7.9092 7.383 10.2038 6.49902 11.8591 5.59107C13.0168 4.95601 13.5242 4.11609 13.5242 2.98501C13.5243 1.41518 12.2833 0.142578 10.7525 0.142578H4.3387C2.13989 0.142578 0.357422 1.97049 0.357422 4.22534C0.357422 6.48016 2.02634 8.30813 4.69017 8.30813Z" fill="#343741"/>
<path id="Vector_2" fill-rule="evenodd" clip-rule="evenodd" d="M5.77539 11.1217C5.77539 10.0164 6.42425 9.01987 7.41974 8.59618L9.43959 7.73656C11.4826 6.86702 13.7314 8.40671 13.7314 10.6752C13.7314 12.4326 12.3419 13.8572 10.6281 13.8568L8.44111 13.8561C6.96877 13.8558 5.77539 12.6317 5.77539 11.1217Z" fill="#343741"/>
<path id="Vector_3" d="M2.65251 8.8457C1.38499 8.8457 0.357422 9.89945 0.357422 11.1993V11.5041C0.357422 12.8039 1.38495 13.8577 2.65247 13.8577C3.91999 13.8577 4.94757 12.8039 4.94757 11.5041V11.1993C4.94757 9.89945 3.92003 8.8457 2.65251 8.8457Z" fill="#343741"/>
</g>
</g>
</svg>

<svg xmlns="http://www.w3.org/2000/svg" width="14" height="14" fill="none"><g fill="#343741"><path fill-rule="evenodd" d="M4.69 8.308c.36 0 1.076-.02 2.066-.438 1.153-.487 3.448-1.371 5.103-2.279 1.158-.635 1.665-1.475 1.665-2.606 0-1.57-1.24-2.842-2.771-2.842H4.339C2.139.143.357 1.97.357 4.225s1.67 4.083 4.333 4.083M5.775 11.122c0-1.106.65-2.102 1.645-2.526l2.02-.86c2.043-.869 4.291.67 4.291 2.94 0 1.757-1.39 3.181-3.103 3.18H8.441c-1.472 0-2.666-1.224-2.666-2.734" clip-rule="evenodd"/><path d="M2.653 8.846c-1.268 0-2.296 1.053-2.296 2.353v.305c0 1.3 1.028 2.354 2.295 2.354 1.268 0 2.296-1.054 2.296-2.354V11.2c0-1.3-1.028-2.353-2.295-2.353"/></g></svg>
